X:492
T:Mouth of the Tobique
R:Reel
S:Colin Hume's website,  colinhume.com  - chords can also be printed below the stave.
Q:1/2=120
M:C|
K:G
P:A
|: (3DEF | "G"G2LBG GLcGG | "G"LBGGLc GGBG | "D"FGAB cAFA | "G"GABc "D"d2 (3DEF |
"G"G2LBG GLcGG | "G"LBGGLc GGBG | "D"FGAB cAFA | "G"GBAF G2 :|
P:B
|: ef | "Em"gfga gdBg | "D"fdAd f2gf | "C"ecAG "D"FDEF | "G"GABc"D"d2 ef |
"Em"gfga gdBg | "D"fdAd f2gf | "C"ecAG "D"FDEF | "G"GBAF G2 :|

